X: 38630
T: Stora Björnmossen
R: mazurka
M: 3/4
K: Dmajor
D>F A>d (3BdB|A>f d>A F>A|G>e c>A B>c|d>f (3edB A2|
D>F A>d (3BdB|A>f d>A F>A|G>e c>A B>c|d2 d3 z:|
|:f2 f2 e>f|g2 (3gfe (3dcB|A2 .c2 c2|B2 A>^G A2|
f2 f2 e>f|g2 (3gfe (3dcB|A2 (3cBA (3GFE|D2 d3 z:|

